icons/mgc/power.svg

<svg width="24" height="24" viewBox="0 0 24 24" fill="none" xmlns="http://www.w3.org/2000/svg">
  <path fill-rule="evenodd" clip-rule="evenodd"
    d="M12 22C17.5229 22 22 17.5229 22 12C22 6.47715 17.5229 2 12 2C6.47715 2 2 6.47715 2 12C2 17.5229 6.47715 22 12 22ZM10.4293 12.7184H8.70693C8.15511 12.7184 7.85969 12.0662 8.22199 11.6481L12.4415 6.85452C12.8316 6.4086 13.5674 6.6873 13.5674 7.27814V11.2914H15.2898C15.8472 11.2914 16.1426 11.9436 15.7748 12.3616L11.5553 17.1552C11.1651 17.6012 10.4293 17.3225 10.4293 16.7316V12.7184Z"
    fill="currentColor" />
</svg>

<svg xmlns="http://www.w3.org/2000/svg" width="24" height="24" viewBox="0 0 24 24" fill="none"><path clip-rule="evenodd" d="M12 22c5.523 0 10-4.477 10-10S17.523 2 12 2 2 6.477 2 12s4.477 10 10 10m-1.57-9.282H8.706a.646.646 0 0 1-.485-1.07l4.22-4.793c.39-.446 1.125-.168 1.125.423v4.013h1.723c.557 0 .853.653.485 1.07l-4.22 4.794c-.39.446-1.126.168-1.126-.423z" fill="currentColor" fill-rule="evenodd"/></svg>
